apps/22/java.svg

<?xml version="1.0" encoding="UTF-8" standalone="no"?>
<!-- Created with Inkscape (http://www.inkscape.org/) -->

<svg
   xmlns:dc="http://purl.org/dc/elements/1.1/"
   xmlns:cc="http://creativecommons.org/ns#"
   xmlns:rdf="http://www.w3.org/1999/02/22-rdf-syntax-ns#"
   xmlns:svg="http://www.w3.org/2000/svg"
   xmlns="http://www.w3.org/2000/svg"
   xmlns:sodipodi="http://sodipodi.sourceforge.net/DTD/sodipodi-0.dtd"
   xmlns:inkscape="http://www.inkscape.org/namespaces/inkscape"
   width="22"
   height="22"
   id="svg27665"
   version="1.1"
   inkscape:version="0.48.3.1 r9886"
   sodipodi:docname="java.svg">
  <defs
     id="defs27667" />
  <sodipodi:namedview
     id="base"
     pagecolor="#ffffff"
     bordercolor="#666666"
     borderopacity="1.0"
     inkscape:pageopacity="0.0"
     inkscape:pageshadow="2"
     inkscape:zoom="32"
     inkscape:cx="10.558264"
     inkscape:cy="11.227878"
     inkscape:document-units="px"
     inkscape:current-layer="layer1"
     showgrid="true"
     inkscape:window-width="1920"
     inkscape:window-height="1033"
     inkscape:window-x="-10"
     inkscape:window-y="25"
     inkscape:window-maximized="1"
     inkscape:snap-bbox="true"
     inkscape:bbox-paths="true"
     inkscape:bbox-nodes="true"
     inkscape:snap-bbox-edge-midpoints="true"
     inkscape:snap-bbox-midpoints="true"
     inkscape:object-paths="true"
     inkscape:snap-intersection-paths="true"
     inkscape:object-nodes="true"
     inkscape:snap-smooth-nodes="true"
     inkscape:snap-midpoints="true"
     inkscape:snap-object-midpoints="true"
     inkscape:snap-center="true"
     inkscape:snap-global="false"
     showguides="false"
     inkscape:guide-bbox="true"
     fit-margin-top="0"
     fit-margin-left="0"
     fit-margin-right="0"
     fit-margin-bottom="0"
     inkscape:showpageshadow="false">
    <inkscape:grid
       type="xygrid"
       id="grid3469"
       empspacing="5"
       visible="true"
       enabled="true"
       snapvisiblegridlinesonly="true"
       originx="-8.8526588e-06px"
       originy="726px" />
    <sodipodi:guide
       orientation="1,0"
       position="10.99999,26.000041"
       id="guide3782" />
    <sodipodi:guide
       orientation="0,1"
       position="18.99999,37.000044"
       id="guide3784" />
  </sodipodi:namedview>
  <metadata
     id="metadata27670">
    <rdf:RDF>
      <cc:Work
         rdf:about="">
        <dc:format>image/svg+xml</dc:format>
        <dc:type
           rdf:resource="http://purl.org/dc/dcmitype/StillImage" />
        <dc:title />
      </cc:Work>
    </rdf:RDF>
  </metadata>
  <g
     inkscape:label="Camada 1"
     inkscape:groupmode="layer"
     id="layer1"
     transform="translate(1356.2084,-1761.6914)">
    <path
       style="font-size:medium;font-style:normal;font-variant:normal;font-weight:normal;font-stretch:normal;text-indent:0;text-align:start;text-decoration:none;line-height:normal;letter-spacing:normal;word-spacing:normal;text-transform:none;direction:ltr;block-progression:tb;writing-mode:lr-tb;text-anchor:start;baseline-shift:baseline;color:#000000;fill:#f1f3f5;fill-opacity:0.90288714000000003;stroke:none;stroke-width:2;marker:none;visibility:visible;display:inline;overflow:visible;enable-background:accumulate;font-family:Sans;-inkscape-font-specification:Sans;fill-rule:nonzero"
       d="M 8.6875 0.53125 L 8.09375 1.6875 C 8.51415 1.9019 9.1267 2.34805 9.4375 2.71875 C 9.5828 2.89215 9.64715 2.99935 9.65625 3.03125 C 8.25075 3.94245 7.36105 4.78145 6.84375 5.59375 C 6.32645 6.40615 6.1855 7.22315 6.375 7.90625 C 6.5646 8.58925 7.0352 9.0826 7.5 9.4375 C 7.9649 9.7924 8.44105 10.0165 8.84375 10.125 L 9.1875 8.875 C 8.9787 8.819 8.59325 8.64435 8.28125 8.40625 C 7.96925 8.16805 7.7134 7.881 7.625 7.5625 C 7.537 7.244 7.5699 6.85895 7.9375 6.28125 C 8.3054 5.70345 9.03645 4.9726 10.34375 4.125 C 10.74205 3.8667 10.9907 3.33425 10.9375 2.90625 C 10.8845 2.47815 10.6816 2.1663 10.4375 1.875 C 9.9491 1.2924 9.2697 0.82815 8.6875 0.53125 z M 14.03125 3 L 12.8125 3.4375 C 12.9182 3.7364 12.904 3.99495 12.75 4.28125 C 12.5961 4.56745 12.26305 4.89865 11.71875 5.15625 C 11.05995 5.46785 10.6 5.92365 10.375 6.46875 C 10.1501 7.01395 10.14575 7.6123 10.28125 8.125 C 10.55285 9.1504 11.26735 10.00675 12.21875 10.28125 L 12.5625 9.03125 C 12.2958 8.95425 11.7202 8.37665 11.5625 7.78125 C 11.4835 7.48345 11.4665 7.20155 11.5625 6.96875 C 11.6585 6.73605 11.85795 6.5128 12.28125 6.3125 C 13.01705 5.9643 13.5595 5.49305 13.875 4.90625 C 14.1906 4.31935 14.25025 3.6191 14.03125 3 z M 17.9375 6.0625 C 16.758533 6.1307219 15.433725 6.79645 14.15625 8.21875 L 15.125 9.09375 C 16.6177 7.43185 17.8451 7.1886 18.6875 7.4375 C 19.5298 7.6864 20.1016 8.51725 20.125 9.34375 C 20.155 10.41665 19.8774 11.37245 19.3125 12.09375 C 18.7475 12.81515 17.87675 13.32415 16.46875 13.46875 L 16.59375 14.78125 C 18.27725 14.60825 19.55095 13.91855 20.34375 12.90625 C 21.13655 11.89385 21.44295 10.58415 21.40625 9.28125 C 21.36725 7.90165 20.4724 6.6041 19.0625 6.1875 C 18.71 6.08335 18.330489 6.0397594 17.9375 6.0625 z M 14.8125 11 C 10.4066 11.7678 6.1865 12.1253 3.75 12.0625 L 3.71875 13.375 C 6.32495 13.442 10.55975 13.06045 15.03125 12.28125 L 14.8125 11 z M 15.21875 13.5625 C 10.69475 14.4336 7.74015 14.4966 5.28125 14.375 L 5.21875 15.6875 C 7.75965 15.8131 10.85575 15.73155 15.46875 14.84375 L 15.21875 13.5625 z M 15.8125 16.125 C 11.6083 17.1707 9.74935 16.9896 7.15625 16.8125 L 7.0625 18.125 C 9.6464 18.3015 11.7968 18.4515 16.125 17.375 L 15.8125 16.125 z M 18.09375 17.78125 C 14.23045 19.85405 9.56335 20.3534 4.21875 19.6875 L 4.0625 21 C 9.5823 21.6877 14.54965 21.14315 18.71875 18.90625 L 18.09375 17.78125 z "
       transform="translate(-1356.2084,1761.6914)"
       id="path3763" />
    <path
       style="fill:#27303a;fill-opacity:0.753280819999999968"
       d="m -1345.2084,1764.6914 c 0.3647,1.5335 -1.6578,0.9899 -2.875,2.8125 -1.1802,1.6984 -0.3298,4.0267 3.1875,3.375 -1.2172,-0.8979 -2.4492,-2.3908 -0.2813,-3.5625 3.4208,-1.8183 1.1046,-3.56 1.0938,-3.5625 -1.7917,-1.5 -1.5833,-0.5625 -1.125,0.9375 z"
       id="path2992"
       inkscape:connector-curvature="0"
       sodipodi:nodetypes="cccccc" />
    <path
       id="path3791"
       d="m -1341.0834,1767.2852 c -0.074,0.1083 -4.9947,0.8353 -3.1875,2.9375 0.3636,0.474 -0.125,1.0625 -0.125,1.0625 0,0 3.0262,-1.1558 1.9687,-1.7813 -1.2068,-0.7138 0.039,-1.5654 1.3438,-2.2187 z"
       style="fill:#27303a;fill-opacity:0.753280819999999968"
       inkscape:connector-curvature="0"
       sodipodi:nodetypes="cccsc" />
    <path
       style="fill:#27303a;fill-opacity:0.753280819999999968"
       d="m -1340.2084,1775.129 c 0,0 2.2503,-1.1654 2.3258,-3.1562 0.075,-1.9909 -2.6875,-0.9688 -2.6875,-0.9688 -0.473,-2.0119 4.0689,-3.018 4.2812,-0.1876 0.1703,2.2714 -0.1273,3.8538 -3.9195,4.3126 z"
       id="path2990"
       inkscape:connector-curvature="0"
       sodipodi:nodetypes="czcsc" />
    <path
       style="color:#000000;fill:#27303a;fill-opacity:0.753280819999999968;fill-rule:nonzero;stroke:none;stroke-width:1;marker:none;visibility:visible;display:inline;overflow:visible;enable-background:accumulate"
       d="m -1352.1772,1771.8164 11.9688,-0.125 0,1 -10.9688,1.125 z"
       id="rect3781"
       inkscape:connector-curvature="0"
       sodipodi:nodetypes="ccccc" />
    <path
       style="color:#000000;fill:#27303a;fill-opacity:0.753280819999999968;fill-rule:nonzero;stroke:none;stroke-width:1;marker:none;visibility:visible;display:inline;overflow:visible;enable-background:accumulate"
       d="m -1350.2084,1774.9414 c 3.1313,-0.086 6.2858,-0.3337 9.5,-1 l 0,1.25 c -3.0423,0.5841 -5.8744,0.9159 -8.5,1 z"
       id="rect3783"
       inkscape:connector-curvature="0"
       sodipodi:nodetypes="ccccc" />
    <path
       style="color:#000000;fill:#27303a;fill-opacity:0.753280819999999968;fill-rule:nonzero;stroke:none;stroke-width:1;marker:none;visibility:visible;display:inline;overflow:visible;enable-background:accumulate"
       d="m -1348.6772,1777.3789 c 2.7687,-0.1157 5.5265,-0.2506 7.9688,-0.9375 l 0.062,1.3125 c -1.9885,0.5861 -4.272,0.8723 -6.8438,0.875 z"
       id="rect3785"
       inkscape:connector-curvature="0"
       sodipodi:nodetypes="ccccc" />
    <path
       style="color:#000000;fill:#27303a;fill-opacity:0.753280819999999968;fill-rule:nonzero;stroke:none;stroke-width:1;marker:none;visibility:visible;display:inline;overflow:visible;enable-background:accumulate"
       d="m -1352.2084,1779.6914 c 3.2232,0.3865 9.9524,0.8395 13.9999,-1.25 l 0,1 c -2.4955,2.4468 -7.79,2.0314 -11.9999,2.25 l -2,-1 z"
       id="rect2994"
       inkscape:connector-curvature="0"
       sodipodi:nodetypes="cccccc" />
  </g>
</svg>

<?xml version="1.0" encoding="UTF-8"?>
<svg id="d" width="22" height="22" version="1.1" xmlns="http://www.w3.org/2000/svg" xmlns:cc="http://creativecommons.org/ns#" xmlns:dc="http://purl.org/dc/elements/1.1/" xmlns:rdf="http://www.w3.org/1999/02/22-rdf-syntax-ns#">
	<metadata id="a">
		<rdf:RDF>
			<cc:Work rdf:about="">
				<dc:format>image/svg+xml</dc:format>
				<dc:type rdf:resource="http://purl.org/dc/dcmitype/StillImage"/>
				<dc:title/>
			</cc:Work>
		</rdf:RDF>
	</metadata>
	<defs id="k">
		<style id="current-color-scheme" type="text/css">.ColorScheme-Text {color:#090d11;}.ColorScheme-Background{color:#ffffff;}</style>
	</defs>
	<path id="e" class="ColorScheme-Background" d="m8.7 0.5-0.5938 1.1562c0.4204 0.2144 1.033 0.6606 1.3438 1.0313 0.1453 0.1733 0.2096 0.2806 0.2187 0.3125-1.4055 0.9112-2.2952 1.7501-2.8125 2.5625s-0.6582 1.6294-0.4687 2.3125c0.1896 0.683 0.6602 1.1763 1.125 1.5312 0.4649 0.3549 0.941 0.579 1.3437 0.6875l0.3438-1.25c-0.2088-0.056-0.5943-0.2306-0.9063-0.4687-0.3119-0.2382-0.5678-0.5253-0.6562-0.8438-0.088-0.3185-0.055-0.7035 0.3125-1.2812 0.3679-0.5778 1.0989-1.3087 2.4062-2.1563 0.3983-0.2583 0.647-0.7907 0.5938-1.2187-0.053-0.4282-0.2559-0.74-0.5-1.0313-0.4884-0.5826-1.1678-1.0468-1.75-1.3437zm5.3437 2.4687-1.2187 0.4375c0.1057 0.2989 0.091 0.5575-0.062 0.8438-0.1539 0.2862-0.487 0.6174-1.0313 0.875-0.6588 0.3116-1.1187 0.7673-1.3437 1.3125-0.2249 0.5452-0.2293 1.1435-0.094 1.6562 0.2716 1.0254 0.9861 1.8818 1.9375 2.1563l0.3438-1.25c-0.2667-0.077-0.8423-0.6547-1-1.25-0.079-0.2979-0.096-0.5797 0-0.8125 0.096-0.2327 0.2954-0.456 0.7187-0.6563 0.7358-0.3482 1.2783-0.8194 1.5938-1.4062 0.3156-0.5869 0.3752-1.2872 0.1562-1.9063zm3.9063 3.0625c-1.179 0.068-2.5038 0.734-3.7813 2.1563l0.9688 0.875c1.4927-1.662 2.7201-1.9052 3.5625-1.6563 0.8423 0.2489 1.4141 1.0798 1.4375 1.9063 0.03 1.0728-0.2476 2.0287-0.8125 2.75-0.565 0.7213-1.4358 1.2303-2.8438 1.375l0.125 1.3125c1.6836-0.173 2.9572-0.8627 3.75-1.875 0.7928-1.0125 1.0993-2.3222 1.0625-3.625-0.039-1.3796-0.9338-2.6772-2.3437-3.0938-0.3525-0.1041-0.732-0.1477-1.125-0.125zm-3.125 4.9375c-4.4059 0.7678-8.626 1.1253-11.062 1.0625l-0.031 1.3125c2.6062 0.067 6.841-0.3146 11.312-1.0937l-0.2187-1.2813zm0.4062 2.5625c-4.5239 0.8711-7.4785 0.9341-9.9375 0.8125l-0.062 1.3125c2.5409 0.1256 5.637 0.044 10.25-0.8437l-0.25-1.2813zm0.5938 2.5625c-4.2042 1.0457-6.0632 0.8646-8.6563 0.6875l-0.094 1.3125c2.5839 0.1765 4.7343 0.3265 9.0625-0.75l-0.3125-1.25zm2.2812 1.6563c-3.8633 2.0727-8.5304 2.5721-13.875 1.9062l-0.1562 1.3125c5.5198 0.6877 10.487 0.1432 14.656-2.0937l-0.625-1.125z" style="fill-opacity:.5;fill:currentColor"/>
	<path id="c" class="ColorScheme-Text" d="m10.861 1.3047c-0.33609 0.040283-0.14777 0.75781 0.13867 1.6953 0.3647 1.5335-1.6578 0.9899-2.875 2.8125-1.1802 1.6984-0.3298 4.0267 3.1875 3.375-1.2172-0.8979-2.4492-2.3908-0.28125-3.5625 3.4208-1.8183 1.1046-3.56 1.0938-3.5625-0.67189-0.5625-1.062-0.78198-1.2637-0.75781zm4.2637 4.2891c-0.074 0.1083-4.9947 0.8353-3.1875 2.9375 0.3636 0.474-0.125 1.0625-0.125 1.0625s3.0262-1.1558 1.9688-1.7812c-1.2068-0.7138 0.03895-1.5654 1.3438-2.2188zm2.8125 1.7832c-1.2443-0.00859-2.5649 0.80385-2.2988 1.9355 0 0 2.7625-1.0222 2.6875 0.96875-0.0755 1.9908-2.3262 3.1562-2.3262 3.1562 3.7922-0.4588 4.0902-2.0411 3.9199-4.3125-0.09288-1.2383-1.0146-1.7414-1.9824-1.748zm-1.9375 2.623-11.969 0.125 1 2 10.969-1.125zm-0.5 2.25c-3.2142 0.6663-6.3687 0.914-9.5 1l1 1.25c2.6256-0.0841 5.4577-0.4159 8.5-1zm0 2.5c-2.4423 0.6869-5.2 0.8218-7.9688 0.9375l1.1875 1.25c2.5718-0.0027 4.8552-0.2889 6.8438-0.875zm2.5 2c-4.0475 2.0895-10.777 1.6365-14 1.25v1l2 1c4.2099-0.2186 9.5045 0.1968 12-2.25z" style="fill-opacity:.75;fill:currentColor"/>
</svg>
